tools/download-figma-icons/icons/outlined-medium/connector-schuko.svg

<svg width="24" height="24" viewBox="0 0 24 24" fill="none" xmlns="http://www.w3.org/2000/svg">
<path d="M23.25 9.0055H21.75V7.03169C21.75 6.91161 21.72 6.79903 21.6675 6.69396C19.8 3.02402 16.095 0.75 12 0.75C7.905 0.75 4.2 3.02402 2.3325 6.68646C2.28 6.79153 2.25 6.91161 2.25 7.02418V8.998H0.75C0.3375 8.998 0 9.33572 0 9.7485V14.2515C0 14.6643 0.3375 15.002 0.75 15.002H2.25V16.9758C2.25 17.0959 2.28 17.2085 2.3325 17.3135C4.2 20.976 7.905 23.25 12 23.25C16.095 23.25 19.8 20.976 21.6675 17.3135C21.72 17.2085 21.75 17.0884 21.75 16.9758V15.002H23.25C23.6625 15.002 24 14.6643 24 14.2515V9.7485C24 9.33572 23.6625 8.998 23.25 8.998V9.0055ZM22.5 13.5085H21C20.5875 13.5085 20.25 13.8462 20.25 14.259V16.8032C18.735 19.6476 15.9225 21.4788 12.75 21.734V20.263C12.75 19.8502 12.4125 19.5125 12 19.5125C11.5875 19.5125 11.25 19.8502 11.25 20.263V21.734C8.0775 21.4788 5.265 19.6476 3.75 16.8032V14.259C3.75 13.8462 3.4125 13.5085 3 13.5085H1.5V10.5065H3C3.4125 10.5065 3.75 10.1688 3.75 9.756V7.21181C5.265 4.36741 8.0775 2.53619 11.25 2.28102V3.752C11.25 4.16478 11.5875 4.5025 12 4.5025C12.4125 4.5025 12.75 4.16478 12.75 3.752V2.28102C15.9225 2.53619 18.735 4.36741 20.25 7.21181V9.756C20.25 10.1688 20.5875 10.5065 21 10.5065H22.5V13.5085Z" fill="black"/>
<path d="M7.5 14.2589C8.74264 14.2589 9.75 13.2508 9.75 12.0074C9.75 10.7639 8.74264 9.75586 7.5 9.75586C6.25736 9.75586 5.25 10.7639 5.25 12.0074C5.25 13.2508 6.25736 14.2589 7.5 14.2589Z" fill="black"/>
<path d="M16.5 14.2589C17.7426 14.2589 18.75 13.2508 18.75 12.0074C18.75 10.7639 17.7426 9.75586 16.5 9.75586C15.2574 9.75586 14.25 10.7639 14.25 12.0074C14.25 13.2508 15.2574 14.2589 16.5 14.2589Z" fill="black"/>
</svg>

<svg xmlns="http://www.w3.org/2000/svg" width="24" height="24" fill="none" viewBox="0 0 24 24"><path fill="currentColor" d="M23.25 9.006h-1.5V7.031c0-.12-.03-.233-.082-.338C19.8 3.024 16.095.75 12 .75S4.2 3.024 2.333 6.686a.8.8 0 0 0-.083.338v1.974H.75a.75.75 0 0 0-.75.75v4.504c0 .412.338.75.75.75h1.5v1.974q.002.18.083.338C4.2 20.976 7.905 23.25 12 23.25s7.8-2.274 9.668-5.936a.8.8 0 0 0 .082-.338v-1.974h1.5c.413 0 .75-.338.75-.75V9.748a.75.75 0 0 0-.75-.75zm-.75 4.502H21a.75.75 0 0 0-.75.751v2.544a9.31 9.31 0 0 1-7.5 4.931v-1.471a.75.75 0 0 0-.75-.75.75.75 0 0 0-.75.75v1.471a9.31 9.31 0 0 1-7.5-4.93v-2.545a.75.75 0 0 0-.75-.75H1.5v-3.002H3c.413 0 .75-.338.75-.751V7.212a9.31 9.31 0 0 1 7.5-4.931v1.471c0 .413.338.75.75.75s.75-.337.75-.75V2.281a9.31 9.31 0 0 1 7.5 4.93v2.545c0 .413.337.75.75.75h1.5z"/><path fill="currentColor" d="M7.5 14.259a2.25 2.25 0 1 0-.002-4.502A2.25 2.25 0 0 0 7.5 14.26m9-.001a2.25 2.25 0 1 0-.002-4.502 2.25 2.25 0 0 0 .002 4.502"/></svg>
